core/assets/icons/calls_out_comming.filled.svg

<svg width="24" height="24" viewBox="0 0 24 24" xmlns="http://www.w3.org/2000/svg"><g id="calls-out-comming=filled"><g id="Union"><path d="M20.7715 16.3832L20.7727 16.3845C20.9172 16.5457 20.9996 16.7555 20.9996 16.9752V16.9787L20.9989 17.3582V20.5613C20.9989 20.9141 20.8648 21.2541 20.6251 21.5122C20.3844 21.7702 20.0545 21.9274 19.7024 21.9519C19.2551 21.9827 18.8864 21.9996 18.5921 21.9996C9.42816 21.9994 2.00024 14.5713 2 5.40682C2.00005 5.11358 2.01572 4.74459 2.04768 4.29604C2.07217 3.94408 2.22937 3.61433 2.48768 3.37382C2.74562 3.13373 3.08506 2.99996 3.4379 3H7.0206C7.23953 2.99995 7.45207 3.0809 7.61571 3.22928C7.77935 3.37698 7.88149 3.58037 7.90334 3.7981C7.92639 4.02827 7.94731 4.21056 7.96633 4.34132C8.16239 5.70912 8.56407 7.03929 9.15764 8.28681C9.21247 8.40221 9.23914 8.5262 9.2391 8.64801C9.23942 8.91264 9.11344 9.17188 8.88505 9.33399L8.88611 9.33325L6.96076 10.7093C8.24318 13.5122 10.4878 15.7575 13.2908 17.0395L14.6653 15.1174C14.7806 14.9564 14.9491 14.8403 15.1417 14.7905C15.2116 14.7724 15.2833 14.7634 15.3547 14.7634C15.4787 14.7634 15.6037 14.7913 15.7175 14.8448C16.9647 15.437 18.2939 15.8378 19.6608 16.0327C19.7947 16.0518 19.9751 16.0735 20.2012 16.0953L20.2031 16.0954L20.205 16.0957C20.4227 16.1187 20.6242 16.2215 20.7705 16.3822L20.7715 16.3832Z"/><path d="M13.9998 8.96949L18.4693 4.49997L14.2801 4.49997L14.2801 3H21.03L21.03 9.74986H19.53L19.53 5.56049L15.0604 10.0301L13.9998 8.96949Z"/></g></g></svg>

<svg xmlns="http://www.w3.org/2000/svg" width="24" height="24" fill="none"><g fill="#191C22"><path d="m20.771 16.383.002.002a.886.886 0 0 1 .227.59v.004l-.001.38v3.202a1.395 1.395 0 0 1-1.296 1.39c-.448.032-.817.049-1.11.049C9.427 22 2 14.57 2 5.407c0-.293.016-.662.048-1.111A1.392 1.392 0 0 1 3.438 3H7.02a.886.886 0 0 1 .882.798c.023.23.044.413.063.543a13.711 13.711 0 0 0 1.192 3.946.842.842 0 0 1-.273 1.047h.001l-1.925 1.375a12.824 12.824 0 0 0 6.33 6.33l1.374-1.922a.847.847 0 0 1 1.053-.272c1.247.592 2.576.993 3.943 1.188.134.019.314.04.54.062h.004c.218.024.42.127.566.287v.001ZM14 8.97l4.47-4.47h-4.19V3h6.75v6.75h-1.5V5.56l-4.47 4.47L14 8.97Z"/></g></svg>
